src/assets/icons/cursos/icono_02.svg

<svg width="109" height="80" viewBox="0 0 109 80" fill="none" xmlns="http://www.w3.org/2000/svg">
<g id="Capa 14">
<g id="Group">
<path id="Vector" d="M0 3.46325C0.861254 0.887689 2.68219 -0.113006 5.34798 0.0100305C7.62825 0.116662 9.92492 0.0264354 12.2134 0.0346378C13.5586 0.0346378 14.2558 0.608807 14.2476 1.63411C14.2312 2.6348 13.493 3.20897 12.1724 3.21718C9.71166 3.22538 7.24273 3.21718 4.78201 3.21718C3.48603 3.21718 3.18254 3.53707 3.18254 4.85766C3.18254 24.4286 3.18254 43.9996 3.18254 63.5788V64.5138C5.65967 64.5138 8.03837 64.5138 10.4253 64.5138C12.0986 64.5138 12.9024 65.0552 12.8614 66.1543C12.8286 67.2124 12.0658 67.6882 10.4335 67.6882C8.145 67.6882 5.85653 67.6882 3.56805 67.6882C3.50243 67.6882 3.42861 67.7128 3.18254 67.7456C3.18254 68.0491 3.18254 68.3854 3.18254 68.7135C3.18254 70.9281 3.18254 73.151 3.18254 75.3656C3.18254 76.7847 3.18254 76.7847 4.56875 76.7847C11.7131 76.7847 18.8574 76.7847 26.0099 76.7847C30.8657 76.7847 35.7297 76.7847 40.5856 76.7847H41.8241C41.8077 74.3321 40.9465 72.3225 39.3634 70.6246C37.5179 68.6396 35.1966 67.68 32.4898 67.6718C27.9128 67.6636 23.3359 67.6718 18.7589 67.6718C18.439 67.6718 18.1191 67.7046 17.8074 67.639C16.9872 67.4667 16.4951 66.9664 16.4787 66.1051C16.4623 65.2439 16.9544 64.7271 17.7582 64.5302C18.0617 64.4564 18.3898 64.4892 18.7015 64.4892C23.0652 64.4892 27.4289 64.5384 31.7926 64.4728C35.5329 64.4154 38.7728 65.5473 41.4468 68.1967C41.5124 68.2623 41.6109 68.2952 41.7913 68.4018C41.8159 68.0327 41.8405 67.7292 41.8405 67.4339C41.8405 49.2327 41.8405 31.0316 41.8405 12.8386C41.8405 7.93357 38.8466 4.20967 34.2205 3.34841C33.4987 3.21718 32.7523 3.21718 32.014 3.20897C28.0687 3.19257 24.1315 3.20897 20.1861 3.20077C19.8006 3.20077 19.3987 3.20077 19.0378 3.10234C18.2176 2.87267 17.8239 2.2821 17.9059 1.43725C17.9879 0.633414 18.4554 0.141269 19.2593 0.0674474C19.9237 0.0018281 20.5963 0.0264354 21.2607 0.0264354C25.0256 0.0264354 28.7905 0.0100305 32.5636 0.0346378C37.0585 0.0674474 40.5281 2.03603 43.0545 5.71891C43.1693 5.88296 43.2842 6.04701 43.4072 6.21106C44.1372 5.3334 44.7688 4.43934 45.5234 3.67651C47.8037 1.39624 50.5761 0.0920547 53.8161 0.0756499C63.3883 0.0264354 72.9687 0.0346378 82.5409 0.059245C85.1083 0.059245 86.8226 1.81456 86.8718 4.39012C86.921 7.09692 86.9128 9.81192 86.8718 12.5187C86.8554 13.3144 87.0687 13.7655 87.8151 14.1592C91.6046 16.1606 94.5903 19.0396 96.8541 22.6733C97.4201 23.5838 97.2397 24.4778 96.4604 24.9864C95.6894 25.4867 94.8199 25.2571 94.1884 24.3876C94.0653 24.2154 93.9587 24.0349 93.8356 23.8627C90.8008 19.3595 86.6749 16.3821 81.3926 15.0451C69.9338 12.1414 58.1059 19.4826 55.7682 30.9578C53.3239 42.9169 61.1326 54.2772 73.0507 56.1146C85.9695 58.0995 97.6744 47.9368 97.2889 35.0261C97.2479 33.6974 96.9854 32.3768 96.8213 31.048C96.7967 30.8429 96.7393 30.6379 96.7065 30.4246C96.5507 29.3173 96.9854 28.5708 97.8794 28.3986C98.8145 28.2181 99.5363 28.7021 99.7906 29.7602C100.512 32.7705 100.644 35.8054 100.201 38.8731C99.7086 42.2935 98.511 45.4596 96.6245 48.4699C96.8952 48.757 97.1494 49.0359 97.4201 49.2984C100.627 52.5137 103.843 55.7208 107.05 58.9362C108.461 60.347 108.502 61.8316 107.148 63.2917C106.361 64.1447 105.532 64.965 104.687 65.7524C103.293 67.0484 101.735 67.0156 100.398 65.6868C97.1576 62.455 93.9095 59.2315 90.7023 55.9669C90.1938 55.4502 89.8821 55.4994 89.2095 55.7619C87.1753 56.5575 86.7652 57.9273 86.8308 59.9943C87.003 65.2028 86.8882 70.4114 86.8882 75.6199C86.8882 78.581 85.5184 79.9754 82.5901 79.9754C56.5065 79.9754 30.4228 79.9672 4.33908 80C2.18184 80 0.828444 79.0813 0.00820242 77.1784V3.46325H0ZM83.6646 58.5343C72.5012 61.159 63.1094 58.5261 56.4818 49.0687C50.7155 40.8417 50.3382 31.8026 55.5222 23.2147C61.9365 12.6007 71.7465 9.49202 83.7139 12.2152C83.7139 9.82832 83.7139 7.44142 83.7139 5.05452C83.7139 3.41403 83.517 3.20897 81.9093 3.20897C72.8621 3.20897 63.8148 3.20897 54.7757 3.20897C54.0785 3.20897 53.3567 3.21718 52.6759 3.34841C48.0334 4.22607 45.0395 7.99098 45.0395 12.9534C45.0395 31.1136 45.0395 49.2737 45.0395 67.4339V68.4756C45.3019 68.2869 45.425 68.2295 45.5152 68.1393C48.181 65.5473 51.3881 64.4482 55.0874 64.4728C64.2003 64.522 73.3214 64.4892 82.4343 64.4892H83.6811V58.5179L83.6646 58.5343ZM45.1379 76.7929H46.3683C58.0485 76.7929 69.7287 76.7929 81.409 76.7929C84.0092 76.7929 83.6975 77.1538 83.7057 74.5044C83.7221 72.2651 83.7057 70.0259 83.7057 67.7292C83.3366 67.7128 83.0987 67.6882 82.8608 67.6882C73.3624 67.6882 63.864 67.6882 54.3656 67.6882C53.7012 67.6882 53.0286 67.7702 52.3806 67.9014C48.2302 68.7299 44.9492 72.6999 45.1379 76.7929ZM92.6299 53.1699C96.0503 56.5903 99.3477 59.8877 102.62 63.1604C103.26 62.496 103.949 61.7824 104.679 61.0196C103.047 59.3955 101.374 57.7386 99.7086 56.0653C98.0517 54.4085 96.4112 52.7434 94.9102 51.2341C94.0571 51.9559 93.3353 52.5629 92.6217 53.1617L92.6299 53.1699Z" fill="white"/>
<path id="Vector_2" d="M93.8354 35.3952C93.8272 45.1233 85.9692 52.9402 76.2248 52.9156C66.5623 52.891 58.7208 45.0167 58.729 35.3542C58.729 25.6672 66.6525 17.8011 76.3642 17.8257C86.0184 17.8503 93.8436 25.7082 93.8354 35.3952ZM90.661 35.4034C90.6774 27.4635 84.2795 21.0246 76.356 21C68.4489 20.9754 61.9526 27.4143 61.9116 35.305C61.8705 43.2614 68.3504 49.7577 76.3068 49.7495C84.2549 49.7495 90.6528 43.3516 90.6692 35.4034H90.661Z" fill="white"/>
<path id="Vector_3" d="M26.3548 48.4043C23.2133 49.0851 21.2529 47.6579 20.1538 44.8362C19.4812 43.0973 18.341 42.3591 16.4627 42.6872C13.436 43.2204 11.6068 41.8916 10.196 39.1602C8.18643 35.264 8.18643 35.4937 10.2206 31.5811C11.5904 28.9482 13.3293 27.603 16.2986 28.1197C18.2262 28.456 19.4894 27.7916 20.1702 25.9133C21.1873 23.0998 23.1969 22.2058 26.1825 22.3452C30.7513 22.5667 30.3904 22.296 32.8921 26.2414C34.4342 28.6775 34.7377 30.8265 32.8511 33.0494C31.4731 34.6816 31.5633 36.1745 32.8839 37.774C34.672 39.9394 34.6884 42.1458 32.9331 44.3851C32.4574 44.9839 32.1129 45.6975 31.7684 46.3865C31.0302 47.8301 29.8572 48.4699 28.2495 48.4043C27.618 48.3797 26.9864 48.4043 26.3466 48.4043H26.3548ZM26.4122 33.6974C28.307 34.3453 29.0944 33.238 30.0049 31.8026C30.981 30.2605 30.9481 29.1286 30.0131 27.5701C29.1108 26.0609 28.2003 25.5031 26.4122 25.5113C24.6077 25.5113 23.6316 26.0281 22.7375 27.6276C21.8681 29.1696 21.8271 30.2523 22.7539 31.7698C23.6726 33.2626 24.4846 34.3946 26.404 33.7056L26.4122 33.6974ZM16.8974 31.294C14.1332 31.294 14.2398 31.3597 12.8782 33.3857C11.9103 34.8293 11.9842 35.912 12.8454 37.413C13.7559 39.0043 14.7156 39.6277 16.5857 39.5949C18.3164 39.5621 19.2269 39.0535 20.1045 37.5689C21.0396 35.9858 21.1134 34.8211 20.1045 33.238C19.2105 31.819 18.423 30.7855 16.8892 31.294H16.8974ZM26.0595 45.2135C28.7827 45.2135 28.6597 45.1315 30.0131 43.1547C31.0302 41.6701 30.9153 40.5628 30.0541 39.0207C29.16 37.4377 28.1921 36.9045 26.3794 36.9045C24.5995 36.9045 23.6808 37.4541 22.7867 38.9633C21.8599 40.53 21.8106 41.6537 22.7949 43.1958C23.7054 44.623 24.4928 45.7385 26.0595 45.2053V45.2135Z" fill="white"/>
</g>
</g>
</svg>

<svg xmlns="http://www.w3.org/2000/svg" width="109" height="80" fill="none" viewBox="0 0 109 80"><g fill="#fff"><path d="M0 3.463C.861.888 2.682-.113 5.348.01c2.28.107 4.577.016 6.865.025 1.346 0 2.043.574 2.035 1.6-.017 1-.755 1.574-2.076 1.582-2.46.008-4.93 0-7.39 0-1.296 0-1.6.32-1.6 1.64v59.657h7.243c1.674 0 2.477.541 2.436 1.64-.032 1.058-.795 1.534-2.427 1.534H3.568c-.066 0-.14.025-.385.058v7.62c0 1.419 0 1.419 1.386 1.419h37.255c-.016-2.453-.877-4.462-2.46-6.16-1.846-1.985-4.167-2.945-6.874-2.953-4.577-.008-9.154 0-13.731 0-.32 0-.64.033-.952-.033-.82-.172-1.312-.673-1.328-1.534s.475-1.378 1.28-1.575c.303-.074.63-.04.942-.04 4.364 0 8.728.048 13.092-.017 3.74-.058 6.98 1.074 9.654 3.724.065.065.164.098.344.205.025-.37.05-.673.05-.968V12.839c0-4.905-2.994-8.63-7.62-9.49-.722-.132-1.469-.132-2.207-.14-3.945-.016-7.883 0-11.828-.008-.385 0-.787 0-1.148-.099-.82-.23-1.214-.82-1.132-1.665.082-.804.55-1.296 1.353-1.37.665-.065 1.337-.04 2.002-.04 3.765 0 7.53-.017 11.303.008 4.495.032 7.964 2.001 10.49 5.684.115.164.23.328.353.492.73-.878 1.362-1.772 2.116-2.534 2.28-2.28 5.053-3.585 8.293-3.601C63.388.026 72.97.035 82.541.059c2.567 0 4.282 1.756 4.33 4.331.05 2.707.042 5.422 0 8.129-.016.795.198 1.246.944 1.64 3.79 2.002 6.775 4.88 9.04 8.514.565.91.385 1.805-.395 2.313-.77.5-1.64.271-2.272-.598-.123-.173-.23-.353-.352-.525-3.035-4.503-7.161-7.48-12.443-8.818-11.46-2.904-23.287 4.438-25.625 15.913-2.444 11.959 5.365 23.32 17.283 25.157 12.918 1.984 24.623-8.178 24.238-21.089-.041-1.329-.304-2.65-.468-3.978-.024-.205-.082-.41-.114-.623-.156-1.108.278-1.854 1.172-2.026.935-.18 1.657.303 1.912 1.361a24 24 0 0 1 .41 9.113c-.492 3.42-1.69 6.587-3.576 9.597.27.287.524.566.795.828 3.207 3.216 6.423 6.423 9.63 9.638 1.411 1.411 1.452 2.896.098 4.356a46 46 0 0 1-2.461 2.46c-1.394 1.296-2.952 1.264-4.289-.065-3.24-3.232-6.489-6.456-9.696-9.72-.508-.517-.82-.468-1.492-.205-2.035.795-2.445 2.165-2.38 4.232.173 5.209.058 10.417.058 15.626 0 2.961-1.37 4.355-4.298 4.355-26.083 0-52.167-.008-78.25.025-2.158 0-3.512-.919-4.332-2.822V3.463zm83.665 55.071C72.5 61.16 63.109 58.526 56.482 49.07c-5.767-8.227-6.144-17.266-.96-25.854 6.415-10.614 16.224-13.723 28.192-11v-7.16c0-1.641-.197-1.846-1.805-1.846H54.776c-.698 0-1.42.008-2.1.14-4.643.877-7.637 4.642-7.637 9.604v55.523c.263-.19.386-.246.476-.337 2.666-2.592 5.873-3.69 9.572-3.666 9.113.049 18.234.016 27.347.016h1.247v-5.971zM45.138 76.793h36.271c2.6 0 2.288.36 2.297-2.289.016-2.239 0-4.478 0-6.775-.37-.016-.607-.04-.845-.04H54.366c-.665 0-1.337.081-1.985.212-4.15.829-7.432 4.799-7.243 8.892M92.63 53.17l9.99 9.99q.962-.996 2.059-2.14c-1.632-1.625-3.305-3.281-4.97-4.955-1.657-1.657-3.298-3.322-4.799-4.83a708 708 0 0 1-2.288 1.927z"/><path d="M93.835 35.395c-.008 9.728-7.866 17.545-17.61 17.52-9.663-.024-17.504-7.898-17.496-17.56 0-9.688 7.924-17.554 17.635-17.53 9.654.025 17.48 7.883 17.471 17.57m-3.174.008c.016-7.94-6.382-14.378-14.305-14.403-7.907-.025-14.403 6.414-14.444 14.305-.041 7.956 6.438 14.453 14.395 14.444a14.34 14.34 0 0 0 14.362-14.346zM26.355 48.404c-3.142.681-5.102-.746-6.201-3.568-.673-1.739-1.813-2.477-3.691-2.149-3.027.533-4.856-.795-6.267-3.527-2.01-3.896-2.01-3.666.025-7.579 1.37-2.633 3.108-3.978 6.078-3.461 1.927.336 3.19-.328 3.871-2.207 1.017-2.813 3.027-3.707 6.012-3.568 4.57.222 4.208-.049 6.71 3.896 1.542 2.436 1.846 4.586-.04 6.808-1.379 1.633-1.289 3.126.032 4.725 1.788 2.165 1.804 4.372.05 6.611-.477.599-.821 1.313-1.166 2.002-.738 1.443-1.91 2.083-3.518 2.017-.632-.024-1.264 0-1.903 0zm.057-14.707c1.895.648 2.682-.459 3.593-1.894.976-1.543.943-2.674.008-4.233-.902-1.51-1.813-2.067-3.6-2.059-1.805 0-2.781.517-3.675 2.117-.87 1.542-.91 2.624.016 4.142.919 1.493 1.73 2.625 3.65 1.936zm-9.515-2.403c-2.764 0-2.657.066-4.019 2.092-.968 1.443-.894 2.526-.033 4.027.91 1.591 1.87 2.215 3.74 2.182 1.731-.033 2.642-.541 3.52-2.026.935-1.583 1.008-2.748 0-4.331-.895-1.419-1.682-2.453-3.216-1.944zm9.163 13.92c2.723 0 2.6-.082 3.953-2.06 1.017-1.484.902-2.591.041-4.133-.894-1.583-1.862-2.117-3.675-2.117-1.78 0-2.698.55-3.592 2.06-.927 1.566-.976 2.69.008 4.232.91 1.427 1.698 2.543 3.264 2.01z"/></g></svg>
